symbolic/16x16/panel/copy-sync4.svg

<svg xmlns="http://www.w3.org/2000/svg" width="16" height="16" x="0" y="0" version="1.1" xml:space="preserve">
 <defs>
  <style id="current-color-scheme" type="text/css">
   .ColorScheme-Text { color:#323a41; } .ColorScheme-Highlight { color:#4285f4; } .ColorScheme-NeutralText { color:#ff9800; } .ColorScheme-PositiveText { color:#4caf50; } .ColorScheme-NegativeText { color:#f44336; }
  </style>
 </defs>
 <path style="fill:currentColor" class="ColorScheme-Text" d="M 15.25,0 10.963,5.0292 12.631,6.0038 15.557,0.27539 Z M 3.3691,3 0,6.0038 3.5,5.4999 4.5312,11 H 14.799 L 13.475,7.6874 11.789,6.5097 7.3672,9.9999 4.6309,3.4785 Z M 9.2637,5 6.5371,6.0038 7.5781,8.5292 10.947,6.0038 Z"/>
 <path style="fill:currentColor" class="ColorScheme-Text" d="M 0.8359,12 C 0.3726,12 0,12.373 0,12.836 V 13.164 C 0,13.627 0.3726,14 0.8359,14 H 8 V 12 Z"/>
 <path style="opacity:0.3;fill:currentColor" class="ColorScheme-Text" d="M 7.9999,12 V 14 H 15.164 C 15.627,14 16,13.625 16,13.162 V 12.836 C 16,12.373 15.625,12.041 15.164,12 Z"/>
</svg>

<svg xmlns="http://www.w3.org/2000/svg" width="16" height="16" xml:space="preserve"><defs><style id="current-color-scheme" type="text/css">.ColorScheme-Text{color:#323a41}</style></defs><path style="fill:currentColor" class="ColorScheme-Text" d="m15.25 0-4.287 5.03 1.668.974L15.557.275zM3.37 3 0 6.004 3.5 5.5 4.531 11H14.8l-1.324-3.313-1.686-1.177L7.367 10 4.631 3.479zm5.894 2L6.537 6.004l1.041 2.525 3.369-2.525zM.836 12a.834.834 0 0 0-.836.836v.328c0 .463.373.836.836.836H8v-2z"/><path style="opacity:.3;fill:currentColor" class="ColorScheme-Text" d="M8 12v2h7.164a.836.836 0 0 0 .836-.838v-.326c0-.463-.375-.795-.836-.836z"/></svg>
